X:22
T:Torth o Fara
T: The Loaf of Bread
M:6/8
L:1/8
K:G
D | G2 G G2 A | (GFE) D2 D | G2 G B2 B | (DEF) G2 :||
B2 B B2 B | d2 d A2 A | B2 B B2 B |( dcB) A2 D | 
G2 G G2 A | (GFE) D2 D | GGG B2 B | (DEF) G3 ||
